public/assets/img/careers/be4.svg

<svg width="58" height="53" viewBox="0 0 58 53" fill="none" xmlns="http://www.w3.org/2000/svg">
<path d="M38.3333 11.0558H46.5C52.289 11.0558 57 15.6444 57 21.283V41.7376C57 47.3762 52.289 51.9648 46.5 51.9648H11.5C5.711 51.9648 1 47.3762 1 41.7376V21.283C1 15.6444 5.711 11.0558 11.5 11.0558H19.6667M38.3333 11.0558V7.64666C38.3333 4.51484 35.7177 1.96484 32.5 1.96484H25.5C22.2823 1.96484 19.6667 4.51484 19.6667 7.64666V11.0558M38.3333 11.0558H29H19.6667" stroke="#E11F27" stroke-width="2"/>
<path d="M29 21.9648V40.9648" stroke="#E11F27" stroke-width="2"/>
<path d="M39 30.9648H20" stroke="#E11F27" stroke-width="2"/>
</svg>

<svg id="eGQI0KCqPLy1" xmlns="http://www.w3.org/2000/svg" xmlns:xlink="http://www.w3.org/1999/xlink" viewBox="0 0 58 53" shape-rendering="geometricPrecision" text-rendering="geometricPrecision" project-id="aed849a6f38b4d1cb027099575c49260" export-id="f41b400f81344d8f8b06efdcda26e59d" cached="false">
<style><![CDATA[
#eGQI0KCqPLy2 {animation: eGQI0KCqPLy2_s_do 3000ms linear infinite normal forwards}@keyframes eGQI0KCqPLy2_s_do { 0% {stroke-dashoffset: 207.93} 60% {stroke-dashoffset: 415.86} 100% {stroke-dashoffset: 415.86}} #eGQI0KCqPLy3_ts {animation: eGQI0KCqPLy3_ts__ts 3000ms linear infinite normal forwards}@keyframes eGQI0KCqPLy3_ts__ts { 0% {transform: translate(29px,31.464801px) scale(0.5,0.5)} 33.333333% {transform: translate(29px,31.464801px) scale(1,1)} 100% {transform: translate(29px,31.464801px) scale(1,1)}} #eGQI0KCqPLy3 {animation: eGQI0KCqPLy3_c_o 3000ms linear infinite normal forwards}@keyframes eGQI0KCqPLy3_c_o { 0% {opacity: 0} 33.333333% {opacity: 1} 100% {opacity: 1}} #eGQI0KCqPLy4_ts {animation: eGQI0KCqPLy4_ts__ts 3000ms linear infinite normal forwards}@keyframes eGQI0KCqPLy4_ts__ts { 0% {transform: translate(29.5px,30.9648px) scale(0.5,0.5)} 33.333333% {transform: translate(29.5px,30.9648px) scale(1,1)} 100% {transform: translate(29.5px,30.9648px) scale(1,1)}} #eGQI0KCqPLy4 {animation: eGQI0KCqPLy4_c_o 3000ms linear infinite normal forwards}@keyframes eGQI0KCqPLy4_c_o { 0% {opacity: 0} 33.333333% {opacity: 1} 100% {opacity: 1}}
]]></style>
<path id="eGQI0KCqPLy2" d="M38.3333,11.0558h8.1667c5.789,0,10.5,4.5886,10.5,10.2272v20.4546c0,5.6386-4.711,10.2272-10.5,10.2272h-35C5.711,51.9648,1,47.3762,1,41.7376L1,21.283c0-5.6386,4.711-10.2272,10.5-10.2272h8.1667m18.6666,0v-3.40914c0-3.13182-2.6156-5.68182-5.8333-5.68182h-7c-3.2177,0-5.8333,2.55-5.8333,5.68182v3.40914m18.6666,0h-9.3333-9.3333" fill="none" stroke="#e11f27" stroke-width="2" stroke-dashoffset="207.93" stroke-dasharray="207.93"/><g id="eGQI0KCqPLy3_ts" transform="translate(29,31.464801) scale(0.5,0.5)"><path id="eGQI0KCqPLy3" d="M29,21.9648v19" transform="translate(-29,-31.464801)" opacity="0" fill="none" stroke="#e11f27" stroke-width="2"/></g><g id="eGQI0KCqPLy4_ts" transform="translate(29.5,30.9648) scale(0.5,0.5)"><path id="eGQI0KCqPLy4" d="M39,30.9648h-19" transform="translate(-29.5,-30.9648)" opacity="0" fill="none" stroke="#e11f27" stroke-width="2"/></g></svg>
